public/avatar/hat/329.svg

<svg xmlns:xlink="http://www.w3.org/1999/xlink" height="92.9" width="100.7" xmlns="http://www.w3.org/2000/svg"><use height="14.3" transform="translate(24.45 46.05)" width="27.85" xlink:href="#a"/><defs><g id="a" fill-rule="evenodd"><path d="m1.25-3.55.3-.15.6.15q1.05.25 1.7 1.05.35.45.2.9.55-.4 1.5-.5L6-2h.25l.6.4Q11.1 2.35 12.1 8q1.2.7 1.55 2.1l-.1.35-1.85.15-.5-.25-5.35-5q-.55-.6-1.3-.7l-1.3.4.4-.45H3.4L2 5.55l-.9.15q-.25-.15.05-.4l.3-.25V5l-1.4.85-.1.05.15-.2-.2.05v.15l-.05.05-.05-.15v-.1l-.05-.15-.05.15-.05.1-.05.15-.05-.05v-.15L-.6 5.7l.1.2-.1-.05q-2.05-1.6-4.45-1.2-.8.1-1.35.7-2.6 2.65-5.35 5l-.45.25-1.9-.15-.1-.35q.35-1.4 1.55-2.1 1-5.65 5.25-9.6l.6-.4h.25l.45-.1q.95.1 1.5.5-.15-.45.2-.9.65-.8 1.7-1.05l.6-.15.3.15h.25l1.3 1.2L1-3.55h.25m.45 2.7.05.15q.9 2.4-.2 4.7.05.2.3.15l1.45-2.4v.05l-.75 2.05q-.45.35-.55.9h.05q2.9-.65 5.5-2.15-1.25.85-2.05 1.85h.15l.15-.1 3.5.45-2.05.15h-.2l-.1.05.1.05v.25L7 5.35Q8.5 7.4 10.4 9.1q.65.55 1.3.7.25.35 1.2.3l.15-.1q0-1.4-1.7-2l.2-.15v.05q.15.2.15 0-.25-1.9-1.05-3.75L9.15 1.4Q7.6-1 5.05-1.75l-.75.3-.6.45q.1-1.85-2.15-2.1l-.65.3-1.05 1.1-.05-.05q-.15-.15-.25-.1Q-1-2.9-2.4-3.35q-.95.25-1.5 1.1-.5.75-.3 1.4-.9-.65-2.15-.8Q-8.8-.25-10.1 2.4q-1.55 3.25-2.3 6.75l-.05-.25-.05-.25-.05-.05-.95.65q-.75 1.2.65 1.15.35 0 .55-.2l6.4-5.6.1-.2-.25-.2h.2q-.15-.45-.75-.6l-1.6-.7h.35L-3.7 4l.05-.05-.1-.05-.35-.5-1.25-1.15.2.05 3.45 2q.15-.2 0-.4l-.1-.15-.35-.7Q-3 1.85-3.35.4V.35l.55.45 1 2.3q.5 1.25 1.4 1.8l-.55-3.55-.1-.6.3.8L.6 4.85l.1-.35Q.6 2.8 1 1.2v.3L.95 4.35l.25-.2.15-1.05.05.2.1-.25q-.15-2 .2-3.9" fill="#2e3d3c" transform="translate(14.2 3.7)"/><path d="m1.4-2.45-.05-.05-.4-.15-.1.05Q0-1.35-.1.4q-.1 1.3.7 1.7l.05-.25Q.45.3.7-1.2v.05Q.65.55 1.25 1.8l.1-.25q-.1-2.05.05-4m.85-.25-.05.05-.25-.25h-.1l-.05.15q.7 1.3.6 2.75-.1 1.05.35 1.6l.15-.25q.55-2 0-3.9h-.15l-.1.05-.4-.2M1.7-.85q-.35 1.9-.2 3.9l-.1.25-.05-.2-.15 1.05-.25.2L1 1.5v-.3Q.6 2.8.7 4.5l-.1.35-1.35-3.3-.3-.8.1.6.55 3.55q-.9-.55-1.4-1.8l-1-2.3-.55-.45V.4q.35 1.45 1.2 2.65l.35.7.1.15q.15.2 0 .4l-3.45-2-.2-.05L-4.1 3.4l.35.5.1.05-.05.05-4.15-1.1h-.35l1.6.7q.6.15.75.6h-.2l.25.2-.1.2-6.4 5.6q-.2.2-.55.2-1.4.05-.65-1.15l.95-.65.05.05.05.25.05.25q.75-3.5 2.3-6.75 1.3-2.65 3.75-4.05 1.25.15 2.15.8-.2-.65.3-1.4.55-.85 1.5-1.1 1.4.45 1.95 1.5.1-.05.25.1l.05.05L.9-2.8l.65-.3Q3.8-2.85 3.7-1l.6-.45.75-.3Q7.6-1 9.15 1.4l1.5 2.75Q11.45 6 11.7 7.9q0 .2-.15 0v-.05l-.2.15q1.7.6 1.7 2l-.15.1q-.95.05-1.2-.3-.65-.15-1.3-.7Q8.5 7.4 7 5.35l.05-.05v-.25L6.95 5l.1-.05h.2L9.3 4.8l-3.5-.45-.15.1H5.5q.8-1 2.05-1.85-2.6 1.5-5.5 2.15H2q.1-.55.55-.9L3.3 1.8v-.05l-1.45 2.4q-.25.05-.3-.15 1.1-2.3.2-4.7L1.7-.85m-12.15 8.5v.05Q-8.2 6.55-6.9 4.4l-3.55 3.25m-.85 1.05-.05.05-1.45.85.05-.15q.1-.25-.1-.4l-.25.05q-.55.8.45.5 1-.3 1.35-.9m2.65-5.8v-.05q.1-.65-.6-.85l-.15.1-.45 1-1.65 4.3v.05l3.6-3.4.3.05q.05-.75-1.05-1.2m1.8-1.3h.05l.9.15h-.05l-2.4-1-.05.1q.85 1.6 2.95 2.15.2-.1.05-.25L-6.85 1.6m3.5-3.05q-.35.4.1.9Q-2.6.1-2.2.85l1.2 2.1-.5-2.7-.1-.5.2-.25 1.15 1.55V1l-.4-1.45.3-.05v-.05Q-.7-2.3-2.4-3.05h-.1l-.1.15.1.4.55.95-.25.2-.05.45-.1-.1-1-1.2-.1.1.1.65M-6.5-.6v.05l1.5 1.7-2.8-1.3v.1l.3.25h-.05l-.3-.05V.2l3.25 2.05h.05l.65-.15.35.45h.15q-.1-2.2-2-3.6l-.9.15.9.85q-.5-.6-1.1-.55M8.65 3.65h.1l-.15.05.05-.05m.2-1.6-.2.1L6.9 3.8l.05.05.2.05q1.45.9 3 .45-.2-.3-.6-.3-.25-.45-.7-.4V3.6l.7-.55-1.2.1.75-.95-.05-.05-.2-.1m1.65 4.1.1-.1q-1-.45-2.2-.65l-.65.15.4.4q1.8 2.2 4.25 3.25l-.4-.45-2.2-1.7V6.7h.05l.15-.2v-.05l-.2-.2.7-.1M5.2-.9v-.05l-.2-.3Q4.2-.7 3.8.25q-.65 1.7.65 2.25l-1 1.15Q5.1 3.2 6.55 1.9l.8-.85q.8-.95-.3-.2l.1-.35.05-.1q-.9.4-1.65 1.45l.4-.6q1-1.55-.4-.85l.2-.55Q6.1-1.3 5.2-.9" fill="#849d99" transform="translate(14.2 3.7)"/><path d="m2.25-2.7.4.2.1-.05h.15q.55 1.9 0 3.9l-.15.25Q2.3 1.05 2.4 0q.1-1.45-.6-2.75l.05-.15h.1l.25.25.05-.05m-.85.25q-.15 1.95-.05 4l-.1.25Q.65.55.7-1.15v-.05Q.45.3.65 1.85L.6 2.1Q-.2 1.7-.1.4q.1-1.75.95-3l.1-.05.4.15.05.05M5.2-.9q.9-.4.55.75l-.2.55q1.4-.7.4.85l-.4.6Q6.3.8 7.2.4l-.05.1-.1.35q1.1-.75.3.2l-.8.85Q5.1 3.2 3.45 3.65l1-1.15Q3.15 1.95 3.8.25 4.2-.7 5-1.25l.2.3v.05m5.3 7.05-.7.1.2.2v.05l-.15.2H9.8v.35l2.2 1.7.4.45Q9.95 8.15 8.15 5.95l-.4-.4.65-.15q1.2.2 2.2.65l-.1.1m-1.65-4.1.2.1.05.05-.75.95 1.2-.1-.7.55v.05q.45-.05.7.4.4 0 .6.3-1.55.45-3-.45l-.2-.05-.05-.05 1.75-1.65.2-.1m-.2 1.6-.05.05.15-.05h-.1M-6.5-.6q.6-.05 1.1.55l-.9-.85.9-.15q1.9 1.4 2 3.6h-.15l-.35-.45-.65.15h-.05L-7.85.2V.15l.3.05h.05l-.3-.25v-.1l2.8 1.3-1.5-1.7V-.6m3.15-.85-.1-.65.1-.1 1 1.2.1.1.05-.45.25-.2-.55-.95-.1-.4.1-.15h.1q1.7.75 2.05 2.5v.05l-.3.05.4 1.45v.05L-1.4-.5l-.2.25.1.5.5 2.7-1.2-2.1Q-2.6.1-3.25-.55q-.45-.5-.1-.9m-3.5 3.05 1.45 1.15q.15.15-.05.25-2.1-.55-2.95-2.15l.05-.1 2.4 1h.05l-.9-.15h-.05m-1.8 1.3q1.1.45 1.05 1.2l-.3-.05-3.6 3.4V7.4l1.65-4.3.45-1 .15-.1q.7.2.6.85v.05m-2.65 5.8q-.35.6-1.35.9-1 .3-.45-.5l.25-.05q.2.15.1.4l-.05.15 1.45-.85.05-.05m.85-1.05L-6.9 4.4q-1.3 2.15-3.55 3.3v-.05" fill="#fff" transform="translate(14.2 3.7)"/></g></defs></svg>

<?xml version="1.0" encoding="UTF-8" standalone="no"?>
<svg xmlns:xlink="http://www.w3.org/1999/xlink" height="92.9px" width="100.7px" xmlns="http://www.w3.org/2000/svg">
  <g transform="matrix(1.0, 0.0, 0.0, 1.0, 38.65, 49.75)">
    <use height="14.3" transform="matrix(1.0, 0.0, 0.0, 1.0, -14.2, -3.7)" width="27.85" xlink:href="#shape0"/>
  </g>
  <defs>
    <g id="shape0" transform="matrix(1.0, 0.0, 0.0, 1.0, 14.2, 3.7)">
      <path d="M1.25 -3.55 L1.55 -3.7 2.15 -3.55 Q3.2 -3.3 3.85 -2.5 4.2 -2.05 4.05 -1.6 4.6 -2.0 5.55 -2.1 L6.0 -2.0 6.25 -2.0 6.85 -1.6 Q11.1 2.35 12.1 8.0 13.3 8.7 13.65 10.1 L13.55 10.45 11.7 10.6 11.2 10.35 5.85 5.35 Q5.3 4.75 4.55 4.65 L3.25 5.05 3.65 4.6 3.4 4.6 2.0 5.55 1.1 5.7 Q0.85 5.55 1.15 5.3 L1.45 5.05 1.45 5.0 0.05 5.85 -0.05 5.9 0.1 5.7 -0.1 5.75 -0.1 5.9 -0.15 5.95 -0.2 5.8 -0.2 5.7 -0.25 5.55 -0.3 5.7 -0.35 5.8 -0.4 5.95 -0.45 5.9 -0.45 5.75 -0.6 5.7 -0.5 5.9 -0.6 5.85 Q-2.65 4.25 -5.05 4.65 -5.85 4.75 -6.4 5.35 -9.0 8.0 -11.75 10.35 L-12.2 10.6 -14.1 10.45 -14.2 10.1 Q-13.85 8.7 -12.65 8.0 -11.65 2.35 -7.4 -1.6 L-6.8 -2.0 -6.55 -2.0 -6.1 -2.1 Q-5.15 -2.0 -4.6 -1.6 -4.75 -2.05 -4.4 -2.5 -3.75 -3.3 -2.7 -3.55 L-2.1 -3.7 -1.8 -3.55 -1.55 -3.55 -0.25 -2.35 1.0 -3.55 1.25 -3.55 M1.7 -0.85 L1.75 -0.7 Q2.65 1.7 1.55 4.0 1.6 4.2 1.85 4.15 L3.3 1.75 3.3 1.8 2.55 3.85 Q2.1 4.2 2.0 4.75 L2.05 4.75 Q4.95 4.1 7.55 2.6 6.3 3.45 5.5 4.45 L5.65 4.45 5.8 4.35 9.3 4.8 7.25 4.95 7.15 4.95 7.05 4.95 6.95 5.0 7.05 5.05 7.05 5.3 7.0 5.35 Q8.5 7.4 10.4 9.1 11.05 9.65 11.7 9.8 11.95 10.15 12.9 10.1 L13.05 10.0 Q13.05 8.6 11.35 8.0 L11.55 7.85 11.55 7.9 Q11.7 8.1 11.7 7.9 11.45 6.0 10.65 4.15 L9.15 1.4 Q7.6 -1.0 5.05 -1.75 L4.3 -1.45 3.7 -1.0 Q3.8 -2.85 1.55 -3.1 L0.9 -2.8 -0.15 -1.7 -0.2 -1.75 Q-0.35 -1.9 -0.45 -1.85 -1.0 -2.9 -2.4 -3.35 -3.35 -3.1 -3.9 -2.25 -4.4 -1.5 -4.2 -0.85 -5.1 -1.5 -6.35 -1.65 -8.8 -0.25 -10.1 2.4 -11.65 5.65 -12.4 9.15 L-12.45 8.9 -12.5 8.65 -12.55 8.6 -13.5 9.25 Q-14.25 10.45 -12.85 10.4 -12.5 10.4 -12.3 10.2 L-5.9 4.6 -5.8 4.4 -6.05 4.2 -5.85 4.2 Q-6.0 3.75 -6.6 3.6 L-8.2 2.9 -7.85 2.9 -3.7 4.0 -3.65 3.95 -3.75 3.9 -4.1 3.4 -5.35 2.25 -5.15 2.3 -1.7 4.3 Q-1.55 4.1 -1.7 3.9 L-1.8 3.75 -2.15 3.05 Q-3.0 1.85 -3.35 0.4 L-3.35 0.35 -2.8 0.8 -1.8 3.1 Q-1.3 4.35 -0.4 4.9 L-0.95 1.35 -1.05 0.75 -0.75 1.55 0.6 4.85 0.7 4.5 Q0.6 2.8 1.0 1.2 L1.0 1.5 0.95 4.35 1.2 4.15 1.35 3.1 1.4 3.3 1.5 3.05 Q1.35 1.05 1.7 -0.85" fill="#2e3d3c" fill-rule="evenodd" stroke="none"/>
      <path d="M1.4 -2.45 L1.35 -2.5 0.95 -2.65 0.85 -2.6 Q0.0 -1.35 -0.1 0.4 -0.2 1.7 0.6 2.1 L0.65 1.85 Q0.45 0.3 0.7 -1.2 L0.7 -1.15 Q0.65 0.55 1.25 1.8 L1.35 1.55 Q1.25 -0.5 1.4 -2.45 M2.25 -2.7 L2.2 -2.65 1.95 -2.9 1.85 -2.9 1.8 -2.75 Q2.5 -1.45 2.4 0.0 2.3 1.05 2.75 1.6 L2.9 1.35 Q3.45 -0.65 2.9 -2.55 L2.75 -2.55 2.65 -2.5 2.25 -2.7 M1.7 -0.85 Q1.35 1.05 1.5 3.05 L1.4 3.3 1.35 3.1 1.2 4.15 0.95 4.35 1.0 1.5 1.0 1.2 Q0.6 2.8 0.7 4.5 L0.6 4.85 -0.75 1.55 -1.05 0.75 -0.95 1.35 -0.4 4.9 Q-1.3 4.35 -1.8 3.1 L-2.8 0.8 -3.35 0.35 -3.35 0.4 Q-3.0 1.85 -2.15 3.05 L-1.8 3.75 -1.7 3.9 Q-1.55 4.1 -1.7 4.3 L-5.15 2.3 -5.35 2.25 -4.1 3.4 -3.75 3.9 -3.65 3.95 -3.7 4.0 -7.85 2.9 -8.2 2.9 -6.6 3.6 Q-6.0 3.75 -5.85 4.2 L-6.05 4.2 -5.8 4.4 -5.9 4.6 -12.3 10.2 Q-12.5 10.4 -12.85 10.4 -14.25 10.45 -13.5 9.25 L-12.55 8.6 -12.5 8.65 -12.45 8.9 -12.4 9.15 Q-11.65 5.65 -10.1 2.4 -8.8 -0.25 -6.35 -1.65 -5.1 -1.5 -4.2 -0.85 -4.4 -1.5 -3.9 -2.25 -3.35 -3.1 -2.4 -3.35 -1.0 -2.9 -0.45 -1.85 -0.35 -1.9 -0.2 -1.75 L-0.15 -1.7 0.9 -2.8 1.55 -3.1 Q3.8 -2.85 3.7 -1.0 L4.3 -1.45 5.05 -1.75 Q7.6 -1.0 9.15 1.4 L10.65 4.15 Q11.45 6.0 11.7 7.9 11.7 8.1 11.55 7.9 L11.55 7.85 11.35 8.0 Q13.05 8.6 13.05 10.0 L12.9 10.1 Q11.95 10.15 11.7 9.8 11.05 9.65 10.4 9.1 8.5 7.4 7.0 5.35 L7.05 5.3 7.05 5.05 6.95 5.0 7.05 4.95 7.15 4.95 7.25 4.95 9.3 4.8 5.8 4.35 5.65 4.45 5.5 4.45 Q6.3 3.45 7.55 2.6 4.95 4.1 2.05 4.75 L2.0 4.75 Q2.1 4.2 2.55 3.85 L3.3 1.8 3.3 1.75 1.85 4.15 Q1.6 4.2 1.55 4.0 2.65 1.7 1.75 -0.7 L1.7 -0.85 M-10.45 7.65 L-10.45 7.7 Q-8.2 6.55 -6.9 4.4 L-10.45 7.65 M-11.3 8.7 L-11.35 8.75 -12.8 9.6 -12.75 9.45 Q-12.65 9.2 -12.85 9.05 L-13.1 9.1 Q-13.65 9.9 -12.65 9.6 -11.65 9.3 -11.3 8.7 M-8.65 2.9 L-8.65 2.85 Q-8.55 2.2 -9.25 2.0 L-9.4 2.1 -9.85 3.1 -11.5 7.4 -11.5 7.45 -7.9 4.05 -7.6 4.1 Q-7.55 3.35 -8.65 2.9 M-6.85 1.6 L-6.8 1.6 -5.9 1.75 -5.95 1.75 -8.35 0.75 -8.4 0.85 Q-7.55 2.45 -5.45 3.0 -5.25 2.9 -5.4 2.75 L-6.85 1.6 M-3.35 -1.45 Q-3.7 -1.05 -3.25 -0.55 -2.6 0.1 -2.2 0.85 L-1.0 2.95 -1.5 0.25 -1.6 -0.25 -1.4 -0.5 -0.25 1.05 -0.25 1.0 -0.65 -0.45 -0.35 -0.5 -0.35 -0.55 Q-0.7 -2.3 -2.4 -3.05 L-2.5 -3.05 -2.6 -2.9 -2.5 -2.5 -1.95 -1.55 -2.2 -1.35 -2.25 -0.9 -2.35 -1.0 -3.35 -2.2 -3.45 -2.1 -3.35 -1.45 M-6.5 -0.6 L-6.5 -0.55 -5.0 1.15 -7.8 -0.15 -7.8 -0.05 -7.5 0.2 -7.55 0.2 -7.85 0.15 -7.85 0.2 -4.6 2.25 -4.55 2.25 -3.9 2.1 -3.55 2.55 -3.4 2.55 Q-3.5 0.35 -5.4 -1.05 L-6.3 -0.9 -5.4 -0.05 Q-5.9 -0.65 -6.5 -0.6 M8.65 3.65 L8.75 3.65 8.6 3.7 8.65 3.65 M8.85 2.05 L8.65 2.15 6.9 3.8 6.95 3.85 7.15 3.9 Q8.6 4.8 10.15 4.35 9.95 4.05 9.55 4.05 9.3 3.6 8.85 3.65 L8.85 3.6 9.55 3.05 8.35 3.15 9.1 2.2 9.05 2.15 8.85 2.05 M10.5 6.15 L10.6 6.05 Q9.6 5.6 8.4 5.4 L7.75 5.55 8.15 5.95 Q9.95 8.15 12.4 9.2 L12.0 8.75 9.8 7.05 9.8 6.95 9.8 6.7 9.85 6.7 10.0 6.5 10.0 6.45 9.8 6.25 10.5 6.15 M5.2 -0.9 L5.2 -0.95 5.0 -1.25 Q4.2 -0.7 3.8 0.25 3.15 1.95 4.45 2.5 L3.45 3.65 Q5.1 3.2 6.55 1.9 L7.35 1.05 Q8.15 0.1 7.05 0.85 L7.15 0.5 7.2 0.4 Q6.3 0.8 5.55 1.85 L5.95 1.25 Q6.95 -0.3 5.55 0.4 L5.75 -0.15 Q6.1 -1.3 5.2 -0.9" fill="#849d99" fill-rule="evenodd" stroke="none"/>
      <path d="M2.25 -2.7 L2.65 -2.5 2.75 -2.55 2.9 -2.55 Q3.45 -0.65 2.9 1.35 L2.75 1.6 Q2.3 1.05 2.4 0.0 2.5 -1.45 1.8 -2.75 L1.85 -2.9 1.95 -2.9 2.2 -2.65 2.25 -2.7 M1.4 -2.45 Q1.25 -0.5 1.35 1.55 L1.25 1.8 Q0.65 0.55 0.7 -1.15 L0.7 -1.2 Q0.45 0.3 0.65 1.85 L0.6 2.1 Q-0.2 1.7 -0.1 0.4 0.0 -1.35 0.85 -2.6 L0.95 -2.65 1.35 -2.5 1.4 -2.45 M5.2 -0.9 Q6.1 -1.3 5.75 -0.15 L5.55 0.4 Q6.95 -0.3 5.95 1.25 L5.55 1.85 Q6.3 0.8 7.2 0.4 L7.15 0.5 7.05 0.85 Q8.15 0.1 7.35 1.05 L6.55 1.9 Q5.1 3.2 3.45 3.65 L4.45 2.5 Q3.15 1.95 3.8 0.25 4.2 -0.7 5.0 -1.25 L5.2 -0.95 5.2 -0.9 M10.5 6.15 L9.8 6.25 10.0 6.45 10.0 6.5 9.85 6.7 9.8 6.7 9.8 6.95 9.8 7.05 12.0 8.75 12.4 9.2 Q9.95 8.15 8.15 5.95 L7.75 5.55 8.4 5.4 Q9.6 5.6 10.6 6.05 L10.5 6.15 M8.85 2.05 L9.05 2.15 9.1 2.2 8.35 3.15 9.55 3.05 8.85 3.6 8.85 3.65 Q9.3 3.6 9.55 4.05 9.95 4.05 10.15 4.35 8.6 4.8 7.15 3.9 L6.95 3.85 6.9 3.8 8.65 2.15 8.85 2.05 M8.65 3.65 L8.6 3.7 8.75 3.65 8.65 3.65 M-6.5 -0.6 Q-5.9 -0.65 -5.4 -0.05 L-6.3 -0.9 -5.4 -1.05 Q-3.5 0.35 -3.4 2.55 L-3.55 2.55 -3.9 2.1 -4.55 2.25 -4.6 2.25 -7.85 0.2 -7.85 0.15 -7.55 0.2 -7.5 0.2 -7.8 -0.05 -7.8 -0.15 -5.0 1.15 -6.5 -0.55 -6.5 -0.6 M-3.35 -1.45 L-3.45 -2.1 -3.35 -2.2 -2.35 -1.0 -2.25 -0.9 -2.2 -1.35 -1.95 -1.55 -2.5 -2.5 -2.6 -2.9 -2.5 -3.05 -2.4 -3.05 Q-0.7 -2.3 -0.35 -0.55 L-0.35 -0.5 -0.65 -0.45 -0.25 1.0 -0.25 1.05 -1.4 -0.5 -1.6 -0.25 -1.5 0.25 -1.0 2.95 -2.2 0.85 Q-2.6 0.1 -3.25 -0.55 -3.7 -1.05 -3.35 -1.45 M-6.85 1.6 L-5.4 2.75 Q-5.25 2.9 -5.45 3.0 -7.55 2.45 -8.4 0.85 L-8.35 0.75 -5.95 1.75 -5.9 1.75 -6.8 1.6 -6.85 1.6 M-8.65 2.9 Q-7.55 3.35 -7.6 4.1 L-7.9 4.05 -11.5 7.45 -11.5 7.4 -9.85 3.1 -9.4 2.1 -9.25 2.0 Q-8.55 2.2 -8.65 2.85 L-8.65 2.9 M-11.3 8.7 Q-11.65 9.3 -12.65 9.6 -13.65 9.9 -13.1 9.1 L-12.85 9.05 Q-12.65 9.2 -12.75 9.45 L-12.8 9.6 -11.35 8.75 -11.3 8.7 M-10.45 7.65 L-6.9 4.4 Q-8.2 6.55 -10.45 7.7 L-10.45 7.65" fill="#ffffff" fill-rule="evenodd" stroke="none"/>
    </g>
  </defs>
</svg>
